fs/cube_tree_20_filled.svg

<svg viewBox="0 0 20 20" fill="none" xmlns="http://www.w3.org/2000/svg" height="1em" width="1em">
  <path d="M9.57267 2.06606C9.85153 1.98319 10.1485 1.98319 10.4273 2.06606L13.2849 2.91533C13.7091 3.0414 14 3.43133 14 3.87389V8.12782C14 8.57042 13.7091 8.96036 13.2848 9.08641L10.4928 9.9159C10.4975 9.94351 10.5 9.9719 10.5 10.0009V11.0009H12C13.1046 11.0009 14 11.8963 14 13.0009V13.0509C15.1411 13.2825 16 14.2914 16 15.5009C16 16.8816 14.8807 18.0009 13.5 18.0009C12.1193 18.0009 11 16.8816 11 15.5009C11 14.2914 11.8589 13.2825 13 13.0509V13.0009C13 12.4486 12.5523 12.0009 12 12.0009H8C7.44772 12.0009 7 12.4486 7 13.0009V13.0509C8.14112 13.2825 9 14.2914 9 15.5009C9 16.8816 7.88071 18.0009 6.5 18.0009C5.11929 18.0009 4 16.8816 4 15.5009C4 14.2914 4.85888 13.2825 6 13.0509V13.0009C6 11.8963 6.89543 11.0009 8 11.0009H9.5V10.0009C9.5 9.9719 9.50246 9.94351 9.50719 9.9159L6.7152 9.08641C6.29094 8.96036 6 8.57042 6 8.12782V3.87389C6 3.43133 6.2909 3.0414 6.71512 2.91533L9.57267 2.06606ZM8.65811 4.52651C8.39614 4.43919 8.11298 4.58077 8.02566 4.84274C7.93833 5.10471 8.07991 5.38787 8.34189 5.4752L9.5 5.86123V7.00073C9.5 7.27687 9.72386 7.50073 10 7.50073C10.2761 7.50073 10.5 7.27687 10.5 7.00073V5.86123L11.6581 5.4752C11.9201 5.38787 12.0617 5.10471 11.9743 4.84274C11.887 4.58077 11.6039 4.43919 11.3419 4.52651L10 4.97381L8.65811 4.52651Z" fill="#212121"/>
</svg>

<svg viewBox="0 0 20 20" fill="none" xmlns="http://www.w3.org/2000/svg" height="1em" width="1em">
  <path d="M9.573 2.066a1.5 1.5 0 0 1 .854 0l2.858.85a1 1 0 0 1 .715.958v4.254a1 1 0 0 1-.715.958l-2.792.83A.506.506 0 0 1 10.5 10v1H12a2 2 0 0 1 2 2v.05a2.5 2.5 0 1 1-1 0V13a1 1 0 0 0-1-1H8a1 1 0 0 0-1 1v.05a2.5 2.5 0 1 1-1 0V13a2 2 0 0 1 2-2h1.5v-1c0-.03.002-.057.007-.085l-2.792-.83A1 1 0 0 1 6 8.128V3.874a1 1 0 0 1 .715-.959l2.858-.849Zm-.915 2.46a.5.5 0 0 0-.316.95L9.5 5.86V7a.5.5 0 0 0 1 0V5.86l1.158-.386a.5.5 0 1 0-.316-.948L10 4.974l-1.342-.447Z" fill="#212121"/>
</svg>
